svgs/sharp-light/right-long-to-line.svg

<svg xmlns="http://www.w3.org/2000/svg" viewBox="0 0 640 512"><!--! Font Awesome Pro 6.5.2 by @fontawesome - https://fontawesome.com License - https://fontawesome.com/license (Commercial License) Copyright 2024 Fonticons, Inc. --><path d="M640 80V64H608V80 432v16h32V432 80zM320 216l32 0V184 141.3L466.7 256 352 370.7V328 296l-32 0L32 296l0-80 288 0zm0-120v32 24 32H288 32 0l0 32 0 80 0 32H32 288h32v32 24 32h32L489.4 278.6 512 256l-22.6-22.6L352 96H320z"/></svg>

<svg xmlns="http://www.w3.org/2000/svg" viewBox="0 0 640 512"><!--! Font Awesome Pro 6.6.0 by @fontawesome - https://fontawesome.com License - https://fontawesome.com/license (Commercial License) Copyright 2024 Fonticons, Inc. --><path d="M640 80l0-16-32 0 0 16 0 352 0 16 32 0 0-16 0-352zM320 216l32 0 0-32 0-42.7L466.7 256 352 370.7l0-42.7 0-32-32 0L32 296l0-80 288 0zm0-120l0 32 0 24 0 32-32 0L32 184 0 184l0 32 0 80 0 32 32 0 256 0 32 0 0 32 0 24 0 32 32 0L489.4 278.6 512 256l-22.6-22.6L352 96l-32 0z"/></svg>
